icon-themes/sifr_svg/cmd/sc_quit.svg

<svg viewBox="0 0 16 16" xmlns="http://www.w3.org/2000/svg"><g fill="#555753"><path d="m8 4v1c0 .25689.12983.52846.3125.71875l1.509766 1.28125h-4.822266v2h4.822266l-1.509766 1.28125c-.18267.1903-.3125.46186-.3125.71875v1h.4140625.5859375c.30945 0 .55232-.0903.75-.28125 1.41667-1.07301 2.83333-2.64575 4.25-3.71875l-4.25-3.71875c-.19768-.19095-.44055-.28125-.75-.28125h-.5859375z"/><path d="m8 1c-3.8659932 0-7 3.1340068-7 7 0 3.865993 3.1340068 7 7 7 1.5539326-.0023 3.040543-.520207 4.243796-1.440811 0 0-1.243796-1.559189-1.253562-1.559189-.862807.64711-1.9117247.997891-2.990234 1-2.7614237 0-5-2.238576-5-5 0-2.7614237 2.2385763-5 5-5 1.0785093.00211 2.127427.3528904 2.990234 1l1.268602-1.5536501c-1.206594-.9256488-2.6990465-1.4458207-4.258836-1.4463499z"/></g></svg>

<svg xmlns="http://www.w3.org/2000/svg" viewBox="0 0 16 16">
  <path
     style="fill:#555753"
     d="M 8,4 V 5 C 8,5.25689 8.12983,5.52846 8.3125,5.71875 L 9.822266,7 H 5 V 9 H 9.822266 L 8.3125,10.28125 C 8.12983,10.47155 8,10.74311 8,11 v 1 H 8.4140625 9 C 9.30945,12 9.55232,11.9097 9.75,11.71875 11.16667,10.64574 12.58333,9.073 14,8 L 9.75,4.28125 C 9.55232,4.0903 9.30945,4 9,4 H 8.4140625 Z"
     />
  <path
     style="fill:#555753"
     d="M 8,1 C 4.1340068,1 1,4.1340068 1,8 c 0,3.865993 3.1340068,7 7,7 1.5539326,-0.0023 3.040543,-0.520207 4.243796,-1.440811 C 12.243796,13.559189 11,12 10.990234,12 10.127427,12.64711 9.0785093,12.997891 8,13 5.2385763,13 3,10.761424 3,8 3,5.2385763 5.2385763,3 8,3 c 1.0785093,0.00211 2.127427,0.3528904 2.990234,1 L 12.258836,2.4463499 C 11.052242,1.5207011 9.5597895,1.0005292 8,1 Z"
     />
</svg>
